public/img/site/twitch.svg

<?xml version="1.0" encoding="utf-8"?>

<svg version="1.0" 
	id="glyph_" 
	xmlns="http://www.w3.org/2000/svg" 
	xmlns:xlink="http://www.w3.org/1999/xlink"
	x="0px"
	y="0px"
	width="100px" 
	height="85.714286000000001px">
	
<!-- Editor: Birdfont 4.29.10 -->

<g id="">
<path style="fill:#000000;stroke-width:0px" d="M50 24.21875 C50 30.27344 50 42.38281 50 48.4375 C47.97712 48.4375 43.93136 48.4375 41.90848 48.4375 C41.90848 42.38281 41.90848 30.27344 41.90848 24.21875 C43.93136 24.21875 47.97712 24.21875 50 24.21875 zM72.20982 24.21875 C72.20982 30.27344 72.20982 42.38281 72.20982 48.4375 C70.18694 48.4375 66.14118 48.4375 64.1183 48.4375 C64.1183 42.38281 64.1183 30.27344 64.1183 24.21875 C66.14118 24.21875 70.18694 24.21875 72.20982 24.21875 zM72.20982 66.62946 C75.7394 63.08594 82.79855 55.99888 86.32812 52.45536 C86.32812 41.3644 86.32812 19.18248 86.32812 8.09152 C69.67076 8.09152 36.35603 8.09152 19.69866 8.09152 C19.69866 22.726 19.69866 51.99498 19.69866 66.62947 C24.24665 66.62947 33.34263 66.62947 37.89062 66.62947 C37.89062 69.65681 37.89062 75.7115 37.89062 78.73884 C40.91797 75.7115 46.97266 69.65681 50 66.62947 C55.55246 66.62947 66.65737 66.62947 72.20982 66.62947 zM94.41964 0 C94.41964 14.13225 94.41964 42.39676 94.41964 56.52902 C88.36496 62.58371 76.25558 74.69308 70.20089 80.74777 C65.6529 80.74777 56.55692 80.74777 52.00893 80.74777 C48.98159 83.77511 42.9269 89.8298 39.89955 92.85714 C36.87221 92.85714 30.81752 92.85714 27.79018 92.85714 C27.79018 89.8298 27.79018 83.77511 27.79018 80.74777 C22.23772 80.74777 11.13281 80.74777 5.58036 80.74777 C5.58036 64.59263 5.58036 32.28237 5.58036 16.12723 C7.101 12.09542 10.1423 4.03181 11.66295 -0 C32.35212 -0 73.73047 -0 94.41964 -0 z" id="path__0" />
</g>
</svg>

<svg version="1.0" xmlns="http://www.w3.org/2000/svg" width="100" height="85.714"><path style="fill:#000;stroke-width:0" d="M50 24.219v24.218h-8.092V24.22H50zm22.21 0v24.218h-8.092V24.22h8.092zm0 42.41 14.118-14.174V8.092h-66.63v58.537h18.193v12.11L50 66.629h22.21zM94.42 0v56.529L70.2 80.748H52.01l-12.11 12.11H27.79v-12.11H5.58v-64.62L11.663 0H94.42z"/></svg>
